public/discord.svg

<svg width="42" height="48" viewBox="0 0 42 48" fill="none" xmlns="http://www.w3.org/2000/svg">
<path d="M27.861 22.8C27.8218 23.2764 27.6446 23.731 27.3511 24.1083C27.0576 24.4856 26.6606 24.7693 26.2085 24.9246C25.7564 25.0799 25.2689 25.1001 24.8055 24.9827C24.3421 24.8654 23.923 24.6156 23.5993 24.2639C23.2756 23.9122 23.0613 23.4738 22.9828 23.0023C22.9042 22.5308 22.9647 22.0466 23.1569 21.6089C23.3491 21.1713 23.6646 20.7991 24.065 20.5378C24.4653 20.2766 24.933 20.1377 25.411 20.138C26.777 20.196 27.861 21.318 27.861 22.692L27.859 22.804V22.798L27.861 22.8ZM16.653 20.14C15.99 20.2017 15.3738 20.5085 14.9248 21.0002C14.4758 21.492 14.2264 22.1335 14.2251 22.7995C14.2239 23.4654 14.4709 24.1078 14.9181 24.6013C15.3652 25.0947 15.9802 25.4038 16.643 25.468H16.653C17.312 25.4406 17.935 25.1596 18.3916 24.6836C18.8482 24.2076 19.1031 23.5736 19.103 22.914L19.101 22.802V22.808L19.105 22.674C19.105 21.304 18.023 20.188 16.667 20.136H16.663L16.653 20.14ZM42.001 4.944V48C35.955 42.656 37.887 44.426 30.865 37.896L32.137 42.336H4.91902C3.61322 42.3323 2.36213 41.8111 1.43991 40.8866C0.51769 39.9622 -0.000452508 38.7098 -0.000976562 37.404V4.932C-0.000981823 3.62637 0.516716 2.37402 1.43862 1.44949C2.36052 0.524962 3.6114 0.00370616 4.91702 0L37.079 0C38.3848 0.00370507 39.6359 0.524897 40.5581 1.44937C41.4804 2.37384 41.9985 3.62619 41.999 4.932V4.944H42.001ZM35.161 27.696C35.0891 22.7623 33.8776 17.912 31.621 13.524L31.705 13.704C29.7828 12.1864 27.4351 11.3062 24.989 11.186L24.961 11.184L24.625 11.568C26.925 12.192 28.925 13.242 30.629 14.638L30.601 14.616C27.6313 13.002 24.303 12.1615 20.923 12.172C17.937 12.172 15.101 12.814 12.545 13.968L12.673 13.916C11.785 14.324 11.257 14.616 11.257 14.616C13.0718 13.1368 15.1878 12.072 17.457 11.496L17.569 11.472L17.329 11.184C14.8634 11.3028 12.4968 12.1903 10.561 13.722L10.585 13.704C8.48102 17.776 7.21302 22.578 7.12902 27.668V27.696C7.95806 28.8589 9.06053 29.8 10.3392 30.4362C11.6178 31.0724 13.0334 31.3841 14.461 31.344H14.449C14.449 31.344 15.337 30.264 16.057 29.352C14.379 28.9259 12.9 27.9324 11.871 26.54L11.857 26.52C12.209 26.768 12.793 27.088 12.837 27.12C15.4031 28.5296 18.2853 29.2639 21.213 29.254C23.5193 29.2569 25.8032 28.8028 27.933 27.918L27.817 27.96C28.873 27.556 29.781 27.08 30.625 26.514L30.575 26.546C29.5202 27.9645 28.0038 28.9709 26.287 29.392L26.235 29.402C26.955 30.314 27.819 31.346 27.819 31.346L28.041 31.348C29.4277 31.3493 30.7948 31.0212 32.0299 30.3908C33.2649 29.7604 34.3326 28.8457 35.145 27.722L35.163 27.696H35.161Z" fill="white"/>
</svg>

<svg xmlns="http://www.w3.org/2000/svg" width="42" height="48" fill="none" xmlns:v="https://vecta.io/nano"><path d="M27.861 22.8a2.46 2.46 0 0 1-1.652 2.125 2.46 2.46 0 0 1-2.609-.661 2.46 2.46 0 0 1-.442-2.655 2.46 2.46 0 0 1 2.254-1.471c1.366.058 2.45 1.18 2.45 2.554l-.002.112v-.006l.002.002zm-11.208-2.66c-.663.062-1.279.369-1.728.86s-.698 1.133-.7 1.799.246 1.308.693 1.802 1.062.803 1.725.867h.01c.659-.027 1.282-.308 1.739-.784s.712-1.11.711-1.77l-.002-.112v.006l.004-.134a2.54 2.54 0 0 0-2.438-2.538h-.004l-.01.004zM42.001 4.944V48c-6.046-5.344-4.114-3.574-11.136-10.104l1.272 4.44H4.919c-1.306-.004-2.557-.525-3.479-1.449S0 38.71-.001 37.404V4.932a4.93 4.93 0 0 1 1.44-3.483A4.93 4.93 0 0 1 4.917 0h32.162c1.306.004 2.557.525 3.479 1.449s1.44 2.177 1.441 3.483v.012h.002zm-6.84 22.752a32.01 32.01 0 0 0-3.54-14.172l.084.18a11.77 11.77 0 0 0-6.716-2.518l-.028-.002-.336.384c2.3.624 4.3 1.674 6.004 3.07l-.028-.022c-2.97-1.614-6.298-2.454-9.678-2.444-2.986 0-5.822.642-8.378 1.796l.128-.052c-.888.408-1.416.7-1.416.7a16.07 16.07 0 0 1 6.2-3.12l.112-.024-.24-.288c-2.466.119-4.832 1.006-6.768 2.538l.024-.018c-2.104 4.072-3.372 8.874-3.456 13.964v.028c.829 1.163 1.932 2.104 3.21 2.74s2.694.948 4.122.908h-.012l1.608-1.992a7.5 7.5 0 0 1-4.186-2.812l-.014-.02c.352.248.936.568.98.6 2.566 1.41 5.448 2.144 8.376 2.134a17.46 17.46 0 0 0 6.72-1.336l-.116.042c1.056-.404 1.964-.88 2.808-1.446l-.05.032a7.6 7.6 0 0 1-4.288 2.846l-.052.01a102.87 102.87 0 0 0 1.584 1.944l.222.002c1.387.001 2.754-.327 3.989-.957s2.303-1.545 3.115-2.669l.018-.026h-.002z" fill="#fff"/></svg>
